X:1
T:Per te caro a se stesso
T:Giammateo Asola
T:Source : Madrigali a due voci---Venetia---G.Vincenti---1587. Editor : André Vierendeels (21/04/17).
T:Notes : Original clef : C3 ( Fuga di mezo tempo, una quarta piu bassa) (nottated as "quinta" in original print) Original note valies have been halved Editorial accidentals above the staff
T:Per te caro a se stesso
T:©
T:©
C:Giammateo Asola
Z:©
%%score [ 1 2 ]
L:1/8
Q:1/4=120
M:2/2
K:C
V:1 treble-8 nm="Tenor 1" snm="T 1"
V:2 treble-8 nm="Tenor 2" snm="T 2"
V:1
 c4 d2 e2 | f2 f2 e4 | d2 d2 c2 A2 | B2 c2 d4 | c2 e4 d2 | c4 z2 d2- | d2 e2 f2 d2 | e2 e2 d4 | %8
w: Per te ca-|ro'a se stes-|so, o- gni spir-|to gen- ti-|le sde- gn'il|ben ch'è|_ dal mond' ai|suoi con- ces-|
 c4 z2 G2 | d2 d2 e2 c2 | d3 e f2 e2- | ed d3 c c2- | c2 B2 c2 A2 | B2 c2 d2 d2 | c3 B/A/ B4 | %15
w: so, e|so- lo'a Dio si-|mi- * * *||* * le, bra-|ma di far- si'o-|gn'ho- * * *|
 A4 z B c2 | d2 ed c2 d2 | z g e2 f2 dd | e2 c2 z d g2 | e2 ff g>f e2 | d4 z2 c2 | c2 B2 c2 A2 | %22
w: ra, e per|te s'in- na- mo- ra,|del suo stes- s ne-|mi- co, del suo|stel- li ne- mi- * *|co, e|per Dio l'al- ma'e|
 B2 c2 A c2 B | cG d3 d cd | ef g4 f2 | e4 d4 | e8 |] %27
w: sem- pre'il ti- e- ne'a-|mi- co'e sem- pre'il tie- *|* * * ne'a-|mi- *|co.|
V:2
 z4 G4 | A2 B2 c2 c2 | B4 A2 A2 | G2 E2 F2 G2 | A4 G2 B2- | B2 A2 G4 | z2 A4 B2 | c2 A2 B2 B2 | %8
w: Per|te ca- ro'a se|stes- so, o-|gni spir- to gen-|ti- le sde-|* gn'il ben|ch'è dal|mond' ai suoi con-|
 A4 G4 | z2 D2 A2 A2 | B2 G2 A3 B | c2 B3 A A2- | AG G4 F2 | G2 E2 F2 G2 | A2 A2 G3 F/E/ | F4 E4 | %16
w: ces- so,|e so- lo'a|Dio si- mi- *|||le, bra- ma di|far- si'o- gn'hor- * *|* ra,|
 z F G2 A2 BA | G2 A2 z d B2 | c2 AA B2 G2 | z A d2 B2 cc | d>c B2 A4 | z2 G2 G2 F2 | G2 E2 F2 G2 | %23
w: e per te s'in- na-|mo- ra, del suo|stes- so ne- mi- co,|del suo stes- so ne-|mi- * * co,|e per Dio|l'al- ma'e sem- pre'il|
 E G2 F GD A2- | AA GA Bc d2- | d2 c2 B4 | A8 |] %27
w: ti- e- ne'a- mi- co'e sem-|* pre'il tie- * * * *|* ne'a- mi-|co.|

